X:1
T:Prière d’Esprit, CM
T:Prière d’Esprit, CM
T:W. C. Foster, possibly early 20th Century
T:Public Domain Courtesy of the Cyber Hymnal™
C:W. C. Foster, possibly early 20th Century
Z:Public Domain
Z:Courtesy of the Cyber Hymnal™
%%score ( 1 2 ) ( 3 4 )
L:1/8
Q:1/4=128
M:3/4
K:Eb
V:1 treble 
V:2 treble 
V:3 bass 
V:4 bass 
V:1
 [EG]2 [EG]2 [EG]2 | [EB]4 [CE]2 | [B,D]4 E2 | [DF]6 | [EB]2 [EB]2 [Ec]2 | [DA]4 [DB]2 | [EG]6 | %7
 [GB]2 [GB]2 [Ge]2 | [Fd]4 [GB]2 | [Ac]4 [Ad]2 | [Ge]6 | [GB]2 [Ac]2 [EA]2 | [EG]4 [DF]2 | E6 |] %14
V:2
 x6 | x6 | x4 E2 | x6 | x6 | x6 | x6 | x6 | x6 | x6 | x6 | x6 | x6 | E6 |] %14
V:3
 [E,B,]2 [E,B,]2 [E,B,]2 | [E,G,]4 [G,B,]2 | [F,A,]4 [E,G,]2 | [B,,B,]6 | [G,B,]2 [G,B,]2 A,2 | %5
 [F,B,]4 [B,,B,]2 | [E,B,]6 | [E,B,]2 [_D,B,]2 [C,C]2 | [B,,F]4 [E,E]2 | [A,E]4 [F,B,]2 | [E,B,]6 | %11
 [E,E]2 [A,,E]2 [C,A,]2 | [B,,B,]4 [B,,A,]2 | [E,G,]6 |] %14
V:4
 x6 | x6 | x6 | x6 | x4 A,2 | x6 | x6 | x6 | x6 | x6 | x6 | x6 | x6 | x6 |] %14

